assets/svg/ficon/credit-card-alt.svg

<?xml version="1.0" encoding="utf-8"?>
<svg width="2304" height="1792" viewBox="0 0 2304 1792" xmlns="http://www.w3.org/2000/svg"><path d="M0 1504v-608h2304v608q0 66-47 113t-113 47h-1984q-66 0-113-47t-47-113zm640-224v128h384v-128h-384zm-384 0v128h256v-128h-256zm1888-1152q66 0 113 47t47 113v224h-2304v-224q0-66 47-113t113-47h1984z" fill="#60be86"/></svg>

<svg width="2304" height="1792" xmlns="http://www.w3.org/2000/svg"><path d="M0 1504V896h2304v608q0 66-47 113t-113 47H160q-66 0-113-47T0 1504zm640-224v128h384v-128H640zm-384 0v128h256v-128H256zM2144 128q66 0 113 47t47 113v224H0V288q0-66 47-113t113-47h1984z" fill="#60be86"/></svg>
